X: 1
T:Bourr\'ee Jess Abrahams
M:3/8
O:France
R:Bourr\'ee
K:ADor
A2dcB2| A2dcB2| ABAG FG| FGFE D2| A2dcB2| A2dcB2| ABc2d2|1 A4G2 :|2 A4 B2|:
c2cdcB| A4Bc| d2de=fe| dcBAG2| c2cdcB| A4Bc| d2dedB|1c4A2 :|2 c6 |]
W:Copyright (C) Bob Tyson
W:Copyright (C) Bob Tyson
